X:260
T:Stoney Steps
O:No 260 William Clarke of Feltwell
M:4/4
L:1/8
K:C
GF|ECEG c2de|fdec cBAG|affa geeg|fdgf fedc|ECEGc2de|fdec cBAG|edef gece|fdBdc2:||:/
d2|ecce dBB2|cAdc cBAG|affa geeg|fdgf fedc|ECEGc2de|fdec cBAG|edef gece|fdBdc2:|

